X:1
T:Animam mea dilecta
T:Annibale Zoilo edit BMarble
T:Animam mea dilecta
T:Copyright © 2016 by The Choral Public Domain Library. Edition may be freely distributed, duplicated, performed or recorded.
T:Copyright © 2016 by The Choral Public Domain Library. Edition may be freely distributed, duplicated, performed or recorded.
T:Copyright © 2016 by The Choral Public Domain Library. Edition may be freely distributed, duplicated, performed or recorded.
T:Copyright © 2016 by The Choral Public Domain Library. Edition may be freely distributed, duplicated, performed or recorded.
T:Copyright © 2016 by The Choral Public Domain Library. Edition may be freely distributed, duplicated, performed or recorded.
T:Copyright © 2016 by The Choral Public Domain Library. Edition may be freely distributed, duplicated, performed or recorded.
T:Copyright © 2016 by The Choral Public Domain Library. Edition may be freely distributed, duplicated, performed or recorded.
C:Annibale Zoilo
C:edit BMarble
Z:Copyright © 2016 by The Choral Public Domain Library. Edition may be freely distributed, duplicated, performed or recorded.
%%score [ 1 2 3 4 ]
L:1/8
Q:1/2=88
M:4/2
K:C
V:1 treble nm="Soprano" snm="S."
V:2 treble nm="Alto" snm="A."
V:3 treble-8 transpose=-12 nm="Tenor" snm="T."
V:4 bass nm="Bass" snm="B."
V:1
"^Good Friday Tenebrae:I delivered my beloved soul into the hands of the wicked,and my possessions have become to me like a lion in the forest.My adversary spoke out against me saying:Come together and make haste to devour him.They placed me in a solitary desert and all the earth mourned for me; because nobody could be found who would claim me and be kind to me.Vs:  Men without mercy rose up against me, and they spared not my soul." A8 A4 A4 | %1
w: A- ni- mam-|
 A8 B8- | B4 c4 d8 | G8 z4 B4- | B4 B4 A6 A2 | A4 G4 G4 A4 | B8 A4 d4 | d4 d4 e4 c4- | %8
w: me- am|_ di- le-|ctam- tra-|* di- di in-|ma- nus- i- ni-|quo- rum,- et-|fa- cta- est- mi-|
 c2 BA c2 B2 c8 | z16 | z16 | z16 | d8 d4 d4- | (d4 c4) B4 A4 | B8 A4 A4- | A4 A4 A4 A4 | B8 c8 | %17
w: * * * * * hi-||||si- cut- le-|* * o in|sil- va:- de-|* dit- con- tra-|me- vo-|
 d4 e6 e2 d4 | c4 (B6 A2) A4- | (A4 ^G4) A8 ||[M:3/2][Q:1/2=112] A8 A4 | B6 B2 B4 | c4 B4 A4 | %23
w: ces- ad- ver- sa-|ri- us _ di-|* * cens:-|Con- gre-|ga- mi- ni-|et- pro- pe-|
 A8 =G4 | G4 G4 G4 ||[M:3/1] G12 =F4 E8 | E16 ||[M:4/2][Q:1/2=88] =c12 B4 | B4 A2 c4 BA BABc | %29
w: ra- te|ad- de- vo-|ran- dum- il-|lum:-|po- su-|e- runt- me _ _ _ _ _ _|
 B4 e8 e4 | f12 e4 | d4 e4 c8- | c4 d4 e8 | z4 E4 =G8- | G4 E4 B4 c4 | d8 (e6 d2 | %36
w: _ in- de-|ser- to-|so- li- tu-|* di- nis,-|et- lu-|* xit- su- per-|me- o- *|
[M:3/1] c4) B6 A2 A2 !courtesy!^G^F G2 (A4 G2) | A16 ||[M:4/2]S A8 A4 c4 | A4 A4 A8 | ^F8 F4 G4- | %41
w: * mnis _ _ _ _ _ ter- *|ra:-|Qui- a- non-|est- in- ven-|tus- qui- me|
 G4 ^F4 E6 E2 | ^F8 z4 G4- | G4 (c6 d2 e4-) | e4 e4 A4 d4 | %45
w: _ a- gno- sce-|ret,- et|_ fa- * *|* ce- ret- be-|
[M:3/1] c4 BABcBcdcBA!courtesy!^G^F G2 A4 G2 | A16!fine! |][M:4/2] z16 | z16 | z16 | z16 | z16 | %52
w: ne, be- * * * * * * * * * * * * * *|ne.-||||||
 z16 | z16 | z16 | z16 |[M:3/1] z24 |[M:4/2] z16 | z16 | z16 |] %60
w: ||||||||
V:2
 E8 E4 E4 | ^F8 (G6 FE | D4) E4 =F8 | E4 G8 G4 | ^F12 E4 | ^F4 D4 E4 F4 | G8 ^F4 F4 | ^F4 F4 G8 | %8
w: A- ni- mam-|me- am _ _|_ di- le-|ctam- tra- di-|di in-|ma- nus- i- ni-|quo- rum,- et-|fa- cta- est-|
 G8 G4 C4 | C12 C4 | B,8 A,8 | A,4 A,4 A,4 A,4 | G,4 (A,6 !courtesy!^G,^F,) G,4 | %13
w: mi- hi- hae-|re- di-|tas- me-|a- si- cut- le-|o- in _ _ sil-|
 A,4 E2 ^F2 G2 E2 A4- | A4 ^G4 A4 E4- | E4 E4 E4 E4 | G8 G8 | B4 c8 B4 | A4 G4 F4 (D4 | E8) E8 || %20
w: va,- in _ _ _ _|_ sil- va:- de-|* dit- con- tra-|me- vo-|ces- ad- ver-|sa- ri- us- di-|* cens:-|
[M:3/2] E8 ^F4 | G6 G2 G4 | G4 G4 E4 | =F8 E4 | E4 E4 E4 ||[M:3/1] D12 D4 B,8 | ^C16 || %27
w: Con- gre-|ga- mi- ni-|et- pro- pe-|ra- te|ad- de- vo-|ran- dum- il-|lum:-|
[M:4/2] A12 G4 | G4 ^F4 G8- | G4 G8 C4 | C4 A,4 A4 G4 | G8 =F4 E2 D2 | C2 A,2 A6 A2 ^G4 | %33
w: po- su-|e- runt- me|_ in- de-|ser- to- so- li-|tu- * * *|* * * di- nis,-|
 z4 B,4 E8 | E4 G8 G4 | ^F8 (E2 F2 G4-) |[M:3/1] G4 =F4 (F4 E2 D2 E8) | E16 ||[M:4/2] ^F8 F4 G4 | %39
w: et- lu-|xit- su- per-|me- o- * *|* mnis- ter- * * *|ra:-|Qui- a- non-|
 ^F4 F4 E8 | D6 C2 D4 E4- | (E2 D2) D8 ^C4 | D8 z4 E4 | (E6 ^F2 G8) | E4 G4 =F8 | %45
w: est- in- ven-|tus qui me a-|* * gno- sce-|ret, et|fa- * *|ce- ret be-|
[M:3/1] E6 D2 C4 D4 E8 | E16 |][M:4/2] z16 | z16 | z16 | z16 | z16 | z16 | z16 | z16 | z16 | %56
w: * * * ne, be-|ne.-||||||||||
[M:3/1] z24 |[M:4/2] z16 | z16 | z16 |] %60
w: ||||
V:3
 A8 ^c4 c4 | d8 (d6 =c2 | B4) G4 A4 B4 | c4 e8 e4 | d12 !courtesy!^c4 | d4 B4 =c4 A4 | G8 d4 A4 | %7
w: A- ni- mam-|me- am _|_ di- le- *|ctam- tra- di-|di in-|ma- nus- i- ni-|quo- rum,- et-|
 A4 A4 c8 | d8 e4 A4 | A4 A4 G8 | !courtesy!^F8 F4 F4- | F4 !courtesy!^F4 E8 | D6 C2 D8 | %13
w: fa- cta- est-|mi- hi- hae-|re- di- tas|me- a- si-|* cut- le-|o- in- sil-|
 E4 A4 e4 =f4 | e8 A4 c4- | c4 c4 c4 c4 | d8 e8 | g4 g8 g4 | e6 d2 (c4 B2 A2) | B8 A8 || %20
w: va,- le- o- in|sil- va: de-|* dit- con- tra-|me- vo-|ces- ad- ver-|sa- ri- us _ _|di- cens:-|
[M:3/2] ^c8 d4 | d6 d2 d4 | e4 d4 ^c4 | d8 B4 | c4 c4 c4 ||[M:3/1] B12 A4 ^G8 | A16 || %27
w: Con- gre-|ga- mi- ni-|et- pro- pe-|ra- te|ad- de- vo-|ran- dum- il-|lum:-|
[M:4/2] e12 e4 | d4 c4 d8- | d4 c8 G4 | (A2 B2 c2 d2 c8) | B4 c8 B4 | A4 A4 B8 | z4 =G4 B8- | %34
w: po- su-|e- runt- me|_ in- de-|ser- * * * *|to- so- li-|tu- di- nis,-|et- lu-|
 B4 B4 G4 G4 | A8 (c6 d2 |[M:3/1] e4) d4 (c4 B2 A2 B8) | A16 ||[M:4/2] d6 c2 d4 e4- | %39
w: * xit- su- per-|me- o- *|* mnis- ter- * * *|ra:-|Qui- a non est|
 (e2 d2) d8 ^c4 | d4 A8 =c4 | B4 (A6 G2) G4 | A8 z4 =c4 | (c6 d2 e4) c4 | c4 G4 d4 A4 | %45
w: _ _ in- ven-|tus- qui me|a- gno- * sce-|ret, et|fa- * * ce-|ret, et fa- ce-|
[M:3/1] (G8 A8) B8 | A16 |][M:4/2] z8 e8 | e4 e4 e8 | e8 B4 e4 | d8 d4 B4 | c4 d4 e8 | %52
w: ret _ be-|ne.-|In-|sur- re- xe-|runt- in- me-|vi- ri- abs-|que- mi- se-|
 e4 d6 c2 c4- | c4 B4 c8 | z4 G8 c4 | B4 c4 d8 |[M:3/1] c4 (e6 d2 c2 B2 A4) f4 |[M:4/2] (e12 d4) | %58
w: ri- cor- * *|* di- a,-|et- non-|pe- per- ce-|runt- a- * * * * ni-|mae _|
 (c4 B2 A2 B8) | A16 |] %60
w: me- * * *|ae.-|
V:4
 A,8 A,4 A,4 | D,8 G,8- | G,4 E,4 D,8 | C,8 z8 | z16 | z16 | z8 z4 D,4 | D,4 D,4 C,8 | %8
w: A- ni- mam-|me- am|_ di- le-|ctam,-|||et-|fa- cta- est-|
 G,8 E,4 =F,4 | F,4 F,4 E,8 | D,8 D,4 D,4- | D,4 D,4 C,8 | B,,6 A,,2 B,,8 | A,,8 z8 | z8 z4 A,4- | %15
w: mi- hi- hae-|re- di- tas-|me- a- si-|* cut- le-|o- in- sil-|va:-|de-|
 A,4 A,4 A,4 A,4 | G,8 C8 | G,4 C8 G,4 | A,4 E,4 F,8 | E,8 A,,8 ||[M:3/2] A,8 D,4 | G,6 G,2 G,4 | %22
w: * dit- con- tra-|me- vo-|ces- ad- ver-|sa- ri- us-|di- cens:-|Con- gre-|ga- mi- ni-|
 C,4 G,4 A,4 | D,8 E,4 | C,4 C,4 C,4 ||[M:3/1] G,12 D,4 E,8 | A,,16 ||[M:4/2] A,12 E,4 | %28
w: et- pro- pe-|ra- te|ad- de- vo-|ran- dum- il-|lum:-|po- su-|
 G,4 A,4 G,8- | G,4 C,8 C,4 | F,12 C,4 | G,4 E,4 F,8- | F,4 F,4 E,8 | z4 E,4 E,8- | %34
w: e- runt- me|_ in- de-|ser- to-|so- li- tu-|* di- nis,-|et- lu-|
 E,4 E,4 E,4 E,4 | D,8 C,8- |[M:3/1] C,4 D,4 (F,8 E,8) | A,,16 ||[M:4/2] D,8 D,4 =C,4 | %39
w: * xit- su- per-|me- o-|* mnis- ter- *|ra:-|Qui- a- non-|
 D,4 D,4 A,8 | D,12 =C,4 | D,4 D,4 E,6 E,2 | D,8 z4 =C,4 | C,12 C,4 | C,8 (D,8 | %45
w: est- in- ven-|tus- qui-|me a- gno- sce-|ret, et|fa- ce-|ret be-|
[M:3/1] E,8) =F,8 E,8 | A,,16 |][M:4/2] A,8 A,4 A,4 | A,8 A,8 | E,4 A,4 G,8 | G,4 D,4 ^F,4 G,4 | %51
w: * ne, be-|ne.-|In- sur- re-|xe- runt-|in- me- vi-|ri- abs- que- mi-|
 A,4 ^F,4 G,8- | G,4 =F,4 E,4 D,2 C,2 | D,4 D,4 C,8- | C,8 z4 E,4- | E,4 E,4 ^F,4 G,4 | %56
w: se- ri- cor-||* di- a,|_ et|_ non- pe- per-|
[M:3/1] A,8 E,4 =F,6 E,2 D,4 |[M:4/2] C,2 D,2 E,2 ^F,2 G,2 A,2 B,4- | B,2 A,2 A,8 ^G,4 | A,16 |] %60
w: ce- runt- a- ni- mae-|me- * * * * * *||ae.|

